website/public/Images/logos/minio_white.svg

<svg width="17" height="28" viewBox="0 0 17 28" fill="none" xmlns="http://www.w3.org/2000/svg">
<path d="M12.4259 3.7793C12.4259 3.7793 14.8308 7.35899 15.6386 8.6313C15.6458 8.64076 15.6497 8.65206 15.6497 8.66364C15.6497 8.67523 15.6458 8.68653 15.6386 8.69599C15.6273 8.70601 15.6122 8.7116 15.5966 8.7116C15.5809 8.7116 15.5659 8.70601 15.5546 8.69599L11.408 4.68932L12.4259 3.7793Z" fill="#F05A28"/>
<path d="M5.33264 16.83C6.0366 15.4505 6.99402 14.1942 8.16241 13.1166C8.60208 12.7067 9.07002 12.3235 9.56329 11.9694V14.8029L5.33264 16.83ZM2.8811 19.4479L9.57263 16.2995V23.4934L11.0809 25.3221V15.5836L12.0148 15.1523C12.6475 14.8579 13.1969 14.4308 13.6189 13.9052C14.0408 13.3796 14.3237 12.7701 14.4449 12.1254C14.5661 11.4807 14.5222 10.8187 14.3167 10.1925C14.1112 9.56628 13.7499 8.99318 13.2616 8.51907L9.80611 5.19383C9.6701 5.05706 9.59778 4.87638 9.60477 4.69078C9.61176 4.50519 9.6975 4.32958 9.84347 4.20187C9.99256 4.07467 10.19 4.00694 10.3928 4.0134C10.5957 4.01986 10.7876 4.09999 10.9268 4.23637L11.3938 4.70216L12.4258 3.78783C11.207 2.32576 9.71272 2.49397 8.84417 3.2401C8.42093 3.60857 8.17335 4.11716 8.15584 4.65412C8.13833 5.19109 8.35231 5.71251 8.75078 6.10385L12.225 9.44634C12.5426 9.75894 12.7802 10.1333 12.9205 10.5419C13.0608 10.9505 13.1002 11.383 13.0357 11.8075C12.9712 12.232 12.8044 12.6378 12.5478 12.995C12.2911 13.3521 11.951 13.6516 11.5525 13.8714L11.0856 14.0956V9.54985C9.01045 10.5358 7.19837 11.9353 5.7803 13.6471C4.36222 15.3588 3.37357 17.3402 2.88578 19.4479" fill="white"/>
</svg>

<svg xmlns="http://www.w3.org/2000/svg" width="17" height="28" fill="none" xmlns:v="https://vecta.io/nano"><path d="M12.426 3.779l3.213 4.852c.007.009.011.021.011.032s-.004.023-.011.032-.026.016-.042.016-.031-.006-.042-.016l-4.147-4.007 1.018-.91z" fill="#f05a28"/><path d="M5.333 16.83c.704-1.379 1.661-2.636 2.83-3.713.44-.41.908-.793 1.401-1.147v2.833L5.333 16.83zm-2.452 2.618l6.692-3.148v7.194l1.508 1.829v-9.738l.934-.431a4.47 4.47 0 0 0 1.604-1.247c.422-.526.705-1.135.826-1.78s.077-1.307-.128-1.933-.567-1.199-1.055-1.673L9.806 5.194c-.136-.137-.208-.317-.201-.503s.093-.361.239-.489a.81.81 0 0 1 .549-.188.8.8 0 0 1 .534.223l.467.466 1.032-.914c-1.219-1.462-2.713-1.294-3.582-.548-.423.368-.671.877-.688 1.414s.196 1.058.595 1.45l3.474 3.342a2.83 2.83 0 0 1 .696 1.096 2.66 2.66 0 0 1 .115 1.266 2.74 2.74 0 0 1-.488 1.188c-.257.357-.597.657-.995.876l-.467.224V9.55c-2.075.986-3.887 2.385-5.305 4.097a14.07 14.07 0 0 0-2.895 5.801" fill="#fff"/></svg>
